svgs/duotone/beer-mug-empty.svg

<svg xmlns="http://www.w3.org/2000/svg" viewBox="0 0 512 512"><!-- Font Awesome Pro 6.0.0-alpha2 by @fontawesome - https://fontawesome.com License - https://fontawesome.com/license (Commercial License) --><defs><style>.fa-secondary{opacity:.4}</style></defs><path d="M432 96H384V64C384 46.326 369.674 32 352 32H64C46.326 32 32 46.326 32 64V416C32 451.346 60.654 480 96 480H320C355.346 480 384 451.346 384 416V384L464.658 347.984C493.455 335.127 512 306.537 512 275V176C512 131.816 476.184 96 432 96ZM160 368C160 376.875 152.875 384 144 384S128 376.875 128 368V144C128 135.125 135.125 128 144 128S160 135.125 160 144V368ZM224 368C224 376.875 216.875 384 208 384S192 376.875 192 368V144C192 135.125 199.125 128 208 128S224 135.125 224 144V368ZM288 368C288 376.875 280.875 384 272 384S256 376.875 256 368V144C256 135.125 263.125 128 272 128S288 135.125 288 144V368ZM448 275C448 281.25 444.25 287 438.5 289.625L384 313.875V160H432C440.875 160 448 167.125 448 176V275Z" class="fa-secondary"/><path d="M144 128C135.125 128 128 135.125 128 144V368C128 376.875 135.125 384 144 384S160 376.875 160 368V144C160 135.125 152.875 128 144 128ZM208 128C199.125 128 192 135.125 192 144V368C192 376.875 199.125 384 208 384S224 376.875 224 368V144C224 135.125 216.875 128 208 128ZM272 128C263.125 128 256 135.125 256 144V368C256 376.875 263.125 384 272 384S288 376.875 288 368V144C288 135.125 280.875 128 272 128Z" class="fa-primary"/></svg>

<svg xmlns="http://www.w3.org/2000/svg" viewBox="0 0 512 512"><!--! Font Awesome Pro 6.3.0 by @fontawesome - https://fontawesome.com License - https://fontawesome.com/license (Commercial License) Copyright 2023 Fonticons, Inc. --><defs><style>.fa-secondary{opacity:.4}</style></defs><path class="fa-primary" d="M144 128C135.1 128 128 135.1 128 144v224C128 376.9 135.1 384 144 384S160 376.9 160 368v-224C160 135.1 152.9 128 144 128zM208 128C199.1 128 192 135.1 192 144v224C192 376.9 199.1 384 208 384S224 376.9 224 368v-224C224 135.1 216.9 128 208 128zM272 128C263.1 128 256 135.1 256 144v224c0 8.875 7.125 16 16 16s16-7.125 16-16v-224C288 135.1 280.9 128 272 128z"/><path class="fa-secondary" d="M432 96H384V64c0-17.67-14.33-32-32-32H64C46.33 32 32 46.33 32 64v352c0 35.35 28.65 64 64 64h224c35.35 0 64-28.65 64-64v-32.08l80.66-35.94C493.5 335.1 512 306.5 512 275V176C512 131.8 476.2 96 432 96zM160 368C160 376.9 152.9 384 144 384S128 376.9 128 368v-224C128 135.1 135.1 128 144 128S160 135.1 160 144V368zM224 368C224 376.9 216.9 384 208 384S192 376.9 192 368v-224C192 135.1 199.1 128 208 128S224 135.1 224 144V368zM288 368c0 8.875-7.125 16-16 16S256 376.9 256 368v-224C256 135.1 263.1 128 272 128S288 135.1 288 144V368zM448 275c0 6.25-3.75 12-9.5 14.62L384 313.9V160h48C440.9 160 448 167.1 448 176V275z"/></svg>
